src/pos-icons/folder-music-outline.svg

<svg height="24" viewBox="0 0 24 24" width="24" xmlns="http://www.w3.org/2000/svg"><path d="m20 18v-10h-16v10zm0-12c1.1 0 2 .89 2 2v10c0 1.1-.9 2-2 2h-16c-1.11 0-2-.9-2-2v-12c0-1.11.89-2 2-2h6l2 2zm-2 3v2h-2v4c0 1.11-.89 2-2 2-1.1 0-2-.89-2-2 0-1.1.9-2 2-2 .17 0 .34 0 .5.06v-4.06z"/></svg>

<?xml version="1.0" encoding="UTF-8"?><!DOCTYPE svg PUBLIC "-//W3C//DTD SVG 1.1//EN" "http://www.w3.org/Graphics/SVG/1.1/DTD/svg11.dtd"><svg xmlns="http://www.w3.org/2000/svg" xmlns:xlink="http://www.w3.org/1999/xlink" version="1.1" id="mdi-folder-music-outline" width="24" height="24" viewBox="0 0 24 24"><path d="M20 18V8H4V18H20M20 6C21.1 6 22 6.89 22 8V18C22 19.1 21.1 20 20 20H4C2.89 20 2 19.1 2 18L2 6C2 4.89 2.89 4 4 4H10L12 6H20M18 9V11H16V15C16 16.11 15.11 17 14 17C12.9 17 12 16.11 12 15C12 13.9 12.9 13 14 13C14.17 13 14.34 13 14.5 13.06V9H18Z" /></svg>
